app/img/icons/phone-white.svg

<svg width="14" height="13" viewBox="0 0 14 13" fill="none" xmlns="http://www.w3.org/2000/svg">
<path fill-rule="evenodd" clip-rule="evenodd" d="M12.9996 9.4843V11.2908C13.001 11.6299 12.8591 11.9539 12.6087 12.1831C12.3583 12.4124 12.0227 12.5256 11.6843 12.4951C9.82768 12.2938 8.04426 11.6606 6.47734 10.6465C5.01953 9.72195 3.78356 8.48843 2.85721 7.03351C1.83752 5.46259 1.20295 3.67405 1.0049 1.81277C0.974416 1.47609 1.08712 1.14211 1.31549 0.89244C1.54386 0.642765 1.86685 0.500378 2.20558 0.500059H4.01565C4.62134 0.49411 5.13759 0.937209 5.22236 1.53578C5.29876 2.11389 5.44044 2.68152 5.64471 3.22785C5.81047 3.66795 5.70445 4.16409 5.3732 4.49841L4.60694 5.26315C5.46585 6.77069 6.71655 8.01891 8.22708 8.87612L8.99334 8.11137C9.32832 7.78078 9.82544 7.67497 10.2664 7.8404C10.8138 8.04426 11.3826 8.18567 11.9619 8.26191C12.5686 8.34734 13.0148 8.87298 12.9996 9.4843Z" stroke="#FA4616" stroke-linecap="round" stroke-linejoin="round"/>
</svg>

<svg width="14" height="13" fill="none" xmlns="http://www.w3.org/2000/svg"><path clip-rule="evenodd" d="M13 9.484v1.807a1.203 1.203 0 01-1.316 1.204 11.955 11.955 0 01-5.207-1.848 11.754 11.754 0 01-3.62-3.613 11.902 11.902 0 01-1.852-5.221A1.203 1.203 0 012.205.5h1.81a1.206 1.206 0 011.207 1.036 7.72 7.72 0 00.423 1.692c.165.44.06.936-.272 1.27l-.766.765a9.644 9.644 0 003.62 3.613l.766-.765c.335-.33.832-.436 1.273-.27a7.76 7.76 0 001.696.42A1.205 1.205 0 0113 9.485z" stroke="#FA4616" stroke-linecap="round" stroke-linejoin="round"/></svg>
